X: 1
T:Dr. Ross's 50th Welcome...
M:6/8
L:1/8
Q:80
C:PM Donald Macleod
S:March
K:HP
|: e|
{g}A3/2{d}c/2e{g}c/2{d}A3/2{d}c|
{g}e3/2f/2{g}e{gcd}c2{e}A|
{g}c/2e3/2{A}e{gef}e3/2c/2{d}A|  !
{g}B/2d3/2c{gBd}B2{e}G|
{g}A3/2{d}c/2e{g}c/2{d}A3/2{d}c|
{g}e3/2f/2{g}e{gcd}c2{e}A|  !
{g}c/2e3/2{A}e{gef}e3/2d/2B|
{g}A3{GAG}A2:| |:
{gf}g|  !
a2{GdG}aA3/2{d}c/2e|
{gef}e3/2c/2a{cd}c2{e}A|
a3/2e/2d{g}c/2{d}A3/2{d}c|  !
{g}B/2d3/2c{gBd}B2{e}G|1
a2{GdG}aA3/2{d}c/2e|
{gef}e3/2c/2a{cd}c2{e}A|  !
{g}c/2e3/2{A}e{gef}e3/2d/2B|
{g}A3{GAG}A2:|2
{g}A3/2{d}c/2e{g}c/2{d}A3/2{d}c|  !
{g}e3/2f/2{g}e{gcd}c2{e}A|
{g}c/2e3/2{A}e{gef}e3/2d/2B|
{g}A3{GAG}A2:| |:  !
e|
{g}A2{GdGe}A{gcd}c2d|
{g}e3/2f/2{g}e{gcd}c2{e}A|
{g}e2{GdGe}A{gcd}c2e|  !
{g}B/2d3/2c{gBd}B2{e}G|
{g}A2{GdGe}A{gcd}c2d|
{g}e3/2f/2{g}e{gcd}c2{e}A|  !
{g}c/2e3/2{A}e{gef}e3/2d/2B|
{g}A3{GAG}A2:| |:
{gf}g|  !
a2{GdGe}A{g}e2{GdGe}A|
{gef}e3/2c/2a{cd}c2{e}A|
{g}c/2e3/2a|1 {ef}e3/2c/2{d}A|2 A3/2{d}c/2e|  !
{g}B/2d3/2g{Bd}B2{e}G|1
a2{GdGe}A{g}e2{GdGe}A|
{gef}e3/2c/2a{cd}c2{e}A|  !
{g}c/2e3/2{A}e{gef}e3/2d/2B|
{g}A3{GAG}A2:|2
{g}A3/2B/2{GdG}c{g}B3/2c/2d|  !
{g}c/2e3/2a{cd}c2{e}A|
{g}c/2e3/2{A}e{gef}e3/2d/2B|
{g}A3{GAG}A2:|  !
